X: 30242
T: BROWN'S HORNPIPE
C: E. L. White
%R: hornpipe, reel
B: Elias Howe "The Musician's Companion" Part 3 1844 p.24 #2
S: http://imslp.org/wiki/The_Musician's_Companion_(Howe,_Elias)
S: https://archive.org/stream/firstthirdpartof03howe/#page/66/mode/1up
Z: 2016 John Chambers <jc:trillian.mit.edu>
M: 2/4
L: 1/16
K: Bb
% - - - - - - - - - - - - - - - - - - - - - - - - -
FD |\
B,DFB dedc | BABc B2cd | efgf efed | cBAG FEDC |\
B,DFB dedc | Bdfb d'bag | fedc BABc | d2B2B2 :|
|: Bc |\
def2 bfdf | efg2 bgeg | fedc BcdB | e2c2c2 Bc |\
def2 bfdf | efg2 bgeg | fedc BABc | d2B2B2 :|
% - - - - - - - - - - - - - - - - - - - - - - - - -
